X:1
T:Maria Magdalene - Gabrieli
T:James Gibb editions
T:#
%%score [ 1 2 3 4 ]
L:1/8
Q:1/4=108
M:4/4
K:Bb
V:1 treble nm="Soprano" snm="S"
V:2 treble nm="Alto" snm="A"
V:3 treble-8 nm="Tenor" snm="T"
V:4 bass nm="Bass" snm="B"
V:1
"^Maria Magdalene""^Andrea Gabrieli\n(c. 1510-1586)" F4 B4- | B2 B2 B2 d2 | c4 B4 | z2 B2 d3 d | %4
w: Ma- ri\-|* a Mag- da-|le- ne|et al- te-|
 c2 f2 e4 | d8 | B4 B2 A2 |[M:4/4] B2 c2 d4 | z4 z2 c2 | B2 A2 G2 F2 | B2 c3 B (B2- | B2 A2) B4- | %12
w: ra Ma- ri-|a|i- bant di-|lu- cu- lo|ad|mo- nu- men- tum,|ad mo- nu- men\-|* * tum,|
 B8 | z4 z2 F2 | B3 B G2 c2 | B4 A4- | A4 z4 | B4 B2 A2 | B2 c2 d4 | d4 (c3 d | e2) d2 (cB B2- | %21
w: |et|al- te- ra Ma-|ri- a||i- bant di-|lu- cu- lo|ad mo\- *|* nu- men\- * *|
 B2 A2) B4 | d8 | c4 c4 | c6 c2 | c4 z4 | z4 z2 A2- | A2 =B2 c2 c2 | d4 d2 c2 | d4 d4 | z8 | %31
w: * * tum:|Je-|sum quem|quae- ri-|tis|non|* est hic: sur-|rex- it, sur-|rex- it||
 z2 F2 G2 A2 | B2 c2 d2 d2 | c2 B2 d4 | z8 | z8 | z2 B2 A2 G2 | B2 B2 c2 B2 | (BA/G/ A2) B4- | %39
w: si- cut lo-|cu- tus est, prae-|ce- det vos,|||prae- ce- det|vos in Ga- li-|lae\- * * * am,|
 B4 z2 A2 | A2 B2 A2 A2 | G2 d2 e4 | d2 d4 c2 | B6 A2- | A2 A2 G2 G2 | A4 z4 | F4 G2 A2 | B4 z4 | %48
w: * prae-|ce- det vos in|Ga- li- lae-|am, i- bi|e- um|* vi- de- bi-|tis.|Al- le- lu-|ia,|
 G4 A2 B2 | c2 B2 c2 d2 | e2 c2 B2 A2 | G2[Q:1/4=107] d2[Q:1/4=105] c2[Q:1/4=103] (B2- | %52
w: Al- le- lu-|ia, Al- le- lu-|ia, Al- le- lu-|ia, Al- le- lu\-|
[Q:1/4=101] B2[Q:1/4=100] A2)[Q:1/4=97] B4- |[Q:1/4=93] B8 |[Q:1/4=90] B8 |] %55
w: * * ia.|||
V:2
 z8 | z8 | F4 G4- | G2 G2 G2 B2 | A4 G2 C2 | G3 G F2 D2 | F6 C2 |[M:4/4] G4 G2 D2 | E2 F2 G2 F2 | %9
w: ||Ma- ri\-|* a Mag- da-|le- ne et|al- te- ra Ma-|ri- a|i- bant di-|lo- cu- lo ad|
 D2 E2 (DB,CD | ED F2 D2 CB, | C4) D4 | z2 B,2 E3 E | E2 D2 (FECD | EF G2) E2 E2 | D3 D F2 F2 | %16
w: mo- nu- men\- * * *||* tum,|Ma- ri- a|Mag- da- le\- * * *|* * * ne et|al- te- ra Ma-|
 F2 C4 G2- | G2 D4 F2 | E2 E2 D4 | z2 F2 G2 A2 | (B3 A G4 | F4) F4 | z4 B4 | A4 A4 | G6 G2 | %25
w: ri- a i\-|* bant di-|lu- cu- lo|ad mo- nu-|men\- * *|* tum:|Je-|sum quem|quae- ri-|
 A4 z2 D2- | D2 =E2 F4 | z4 z2 A2 | B4 B2 A2 | B4 B2 F2 | F2 E2 D2 C2 | D2 D2 E2 F2 | G2 A2 B4 | %33
w: tis non|* est hic:|sur-|rex- it, sur-|rex- it si-|cut lo- cu- tus|est, si- cut lo-|cu- tus est,|
 z8 | z4 z2 F2 | F2 G2 F4 | z2 F2 F2 G2 | F3 F E2 D2 | C4 B,2 F2 | E2 D2 F4- | F2 D2 (F3 C | %41
w: |prae-|ce- det vos,|prae- ce- det|vos in Ga- li-|lae- am, prae-|ce- det vos|* in Ga\- *|
 E2) F2 (ED C2) | F2 B4 A2 | G4 F4 | F2 F4 =E2 | F4 z4 | z2 F2 _E2 F2 | G4 z4 | z2 G2 F2 G2 | %49
w: * li- lae\- * *|am, i- bi|e- um|vi- de- bi-|tis.|Al- le- lu-|ia,|Al- le- lu-|
 _A2 F2 F2 F2 | E2 G4 F2 | (EF G3 F F2- | F4) D2 G2- | G2 F2 E4 | D8 |] %55
w: ia, Al- le- lu-|ia, Al- le-|lu\- * * * *|* ia, Al\-|* le- lu-|ia.|
V:3
 z8 | z8 | z8 | z8 | z8 | z4 z2 B2 | d3 d c2 f2 |[M:4/4][K:treble-8] e4 d4 | B4 B2 A2 | %9
w: |||||Et|al- te- ra Ma-|ri- a|i- bant di-|
 B2 c2 d2 c2 | B2 A2 G4 | F4 z2 F2 | G6 G2 | G2 B2 A4 | G8 | z2 B2 d3 d | c2 f2 e4 | d4 z4 | %18
w: lo- cu- lo ad|mo- nu- men-|tum, Ma-|ri- a|Mag- da- le-|ne|et al- te-|ra Ma- ri-|a|
 z4 f4 | f2 d2 e2 f2 | g2 f2 e2 d2 | c4 B4 | f8 | f4 f4 | =e6 e2 | f8 | z4 c4 | d4 c2 f2 | %28
w: i-|bant di- lu- cu-|lo ad mo- nu-|men- tum:|Je-|sum quem|quae- ri-|tis|non|est hic: sur-|
 f4 f2 f2 | f4 f2 d2 | c2 B2 A2 G2 | A2 B2 G2 d2 | B2 F2 B2 f2 | f2 g2 f3 f | e2 d2 c4 | %35
w: rex- it, sur-|rex- it si-|cut lo- cu- tus|est, si- cut lo-|cu- tus est, prae-|ce- det vos in|Ga- li- lae-|
 B2 d2 d2 c2 | d4 z2 e2 | e2 d2 g2 f2 | f2 f2 (dcBA | GA B2) A2 d2 | c2 B2 d2 c2 | %41
w: am, prae- ce- det|vos, prae-|ce- det vos in|Ga- li- lae\- * * *|* * * am, prae-|ce- det vos in|
 c2 B2 (BA/G/ A2) | B2 f4 f2 | d4 d4 | c2 c4 c2 | c2 c2 B2 c2 | d4 z4 | z2 d2 c2 d2 | e4 z4 | %49
w: Ga- li- lae\- * * *|am, i- bi|e- um|vi- de- bi-|tis. Al- le- lu-|ia,|Al- le- lu-|ia,|
 z2 B2 A2 B2 | c2 e2 d3 c | B2 G2 A2 B2 | c4 B2 G2 | (B3 A GF G2) | F8 |] %55
w: Al- le- lu-|ia, Al- le- lu-|ia, Al- le- lu-|ia, Al- le-|lu\- * * * *|ia.|
V:4
 z8 | z8 | z8 | z8 | z2 F,2 C3 C | B,2 G,2 B,4- | B,4 F,4 |[M:4/4] z4 G,4 | G,2 D,2 E,2 F,2 | %9
w: ||||Et al- te-|ra Ma- ri\-|* a|i-|bant di- lo- cu-|
 G,2 C2 B,2 A,2 | G,2 F,2 z4 | z4 B,,4 | E,6 E,2 | E,2 G,2 F,4 | E,4 z2 C,2 | G,3 G, F,2 D,2 | %16
w: lo ad mo- nu-|men- tum,|Ma-|ri- a|Mag- da- le-|ne et|al- te- ra Ma-|
 F,4 C,4 | G,4 G,2 F,2 | G,2 A,2 B,4- | B,4 z2 F,2 | E,2 B,,2 (E,4 | F,4) B,,4 | B,8 | F,4 F,4 | %24
w: ri- a|i- bant di-|lu- cu- lo|* ad|mo- nu- men\-|* tum:|Je-|sum quem|
 C6 C2 | F,4 B,4 | G,4 F,4 | z4 z2 F,2 | B,4 B,2 F,2 | B,4 B,2 B,2 | A,2 G,2 F,2 E,2 | D,4 z4 | %32
w: quae- ri-|tis non|est hic:|sur-|rex- it, sur-|rex- it si-|cut lo- cu- tus|est,|
 z4 z2 B,2 | A,2 G,2 B,2 B,2 | C2 B,2 (B,A,/G,/ A,2) | B,2 B,2 B,2 A,2 | B,4 z4 | B,4 E,2 B,,2 | %38
w: prae-|ce- det vos in|Ga- li- lae\- * * *|am, prae- ce- det|vos|in Ga- li-|
 F,4 B,,4 | z4 F,4 | F,2 G,2 F,3 F, | E,2 D,2 C,4 | B,,2 B,4 F,2 | G,4 D,4 | F,4 C,2 C,2 | %45
w: lae- am,|prae-|ce- det vos in|Ga- li- lae-|am, i- bi|e- um|vi- de- bi-|
 F,2 F,2 G,2 A,2 | B,4 z4 | G,4 A,2 B,2 | C4 z4 | z8 | C,4 D,4 | E,4 F,4- | F,4 z2 E,2- | %53
w: tis. Al- le- lu-|ia,|Al- le- lu-|ia,||Al- le-|lu- ia,|* Al\-|
 E,2 D,2 E,4 | B,,8 |] %55
w: * le- lu-|ia.|

